contributed-vectors/shein.svg

<svg width="192" height="192" viewBox="0 0 192 192" fill="none" xmlns="http://www.w3.org/2000/svg">
<g clip-path="url(#clip0)">
<path fill-rule="evenodd" clip-rule="evenodd" d="M29 19H162C167.52 19 172 23.48 172 29V162C172 167.52 167.52 172 162 172H29C23.48 172 19 167.52 19 162V29C19 23.48 23.48 19 29 19Z" fill="#56595B"/>
<path d="M71.3899 116.83L81.3399 110.78C83.8299 116.83 89.2799 120.85 96.5099 120.85C103.15 120.85 108.01 117.41 108.01 111.61C108.01 96.56 74.3599 102.37 74.3599 78.78C74.3499 65.99 84.4199 59 95.5599 59C103.97 59 111.44 62.91 115.94 68.48L107.76 75.95C104.56 71.92 100.3 69.79 95.5499 69.79C90.3399 69.79 85.9499 72.4 85.9499 77.97C85.9499 92.54 119.6 86.38 119.6 111.62C119.6 124.42 109.17 132 96.3699 132C85.0099 132 75.5299 125.72 71.3899 116.83Z" fill="white"/>
</g>
<defs>
<clipPath id="clip0">
<rect width="192" height="192" fill="white"/>
</clipPath>
</defs>
</svg>

<svg xmlns="http://www.w3.org/2000/svg" width="192" height="192" fill="none"><g clip-path="url(#a)"><path fill="#56595B" fill-rule="evenodd" d="M29 19h133c5.52 0 10 4.48 10 10v133c0 5.52-4.48 10-10 10H29c-5.52 0-10-4.48-10-10V29c0-5.52 4.48-10 10-10Z" clip-rule="evenodd"/><path fill="#fff" d="m71.39 116.83 9.95-6.05c2.49 6.05 7.94 10.07 15.17 10.07 6.64 0 11.5-3.44 11.5-9.24 0-15.05-33.65-9.24-33.65-32.83C74.35 65.99 84.42 59 95.56 59c8.41 0 15.88 3.91 20.38 9.48l-8.18 7.47c-3.2-4.03-7.46-6.16-12.21-6.16-5.21 0-9.6 2.61-9.6 8.18 0 14.57 33.65 8.41 33.65 33.65 0 12.8-10.43 20.38-23.23 20.38-11.36 0-20.84-6.28-24.98-15.17Z"/></g><defs><clipPath id="a"><path fill="#fff" d="M0 0h192v192H0z"/></clipPath></defs></svg>
